!!!OTL: Alter Reihentanz um das erste Veilchen
!!!ARE: Europa, Mitteleuropa, Deutschland
!!!SCT: A0279
!!!YEM: Copyright 1995, estate of Helmut Schaffrath.
**kern
*ICvox
*Ivox
*M4/2
*k[b-]
*F:
{2f
=1
1cc
2cc
2f
=2
1cc
2cc}
{2ee-
=3
2dd
2cc
2b-
2a
=4
4b-
4cc
4dd
4b-
2cc}
{2a
=5
2a
2a
2b-
2b-
=6
1cc
2a}
{2a
=7
2b-
2b-
2cc
2cc
=8
1a
2f}
{2f
=9
2b-
2b-
2g
2g
=10
1.f}
==
!!!AGN: Romanze, Ballade, Lied
!! Klieber Vier geistliche Reyenlieder  Nuernberg 1530.
!!!ONB: ESAC (Essen Associative Code) Database: ALTDEU
!!!AMT: simple quadruple
!!!AIN: vox
!!!EED: Helmut Schaffrath
!!!EEV: 1.0
*-
